X:1
T:Title
%%score { ( 1 3 4 ) | ( 2 5 ) }
L:1/8
Q:1/4=84
M:6/8
K:A
V:1 treble nm="Grand Piano"
V:3 treble 
V:4 treble 
V:2 bass 
V:5 bass 
V:1
 [Ec]>[DB][CA] [Ec]>[DB][CA] | [FB][FA][DF] [CE]3 | [CE]>[DF][CE] [CE][CA][Ec] | BBc B3 | %4
w: E.~O.~Excell * * * * *||||
 d>cB [Ec]>[DB][CA] | [FB][FA][DF] [DF]3 | [CE][CA][DB] [Ec]>[DB][CA] | BFG A3 | d6 | %9
w: |||||
 c>c[Ec] [DB]2 [CA] | G>FG A>GA | B>AB [Ec]3 | d6 | c>c[Ec] [DB]2 [CA] | [FB]>[Fc][Fd] A>GA | %15
w: ||||||
[M:15/16] B>FG[CA]3/2- [CA]3 |] %16
w: |
V:2
 [A,,A,]>[A,,A,][A,,A,] [A,,A,]>[A,,A,][A,,A,] | [D,A,][D,A,][D,A,] [A,,A,]3 | %2
 [A,,A,]>[A,,A,][A,,A,] [A,,A,][A,,A,][A,,A,] | [E,G,E][E,G,E][E,A,E] [E,G,E]3 | %4
 [E,B,E]>[E,A,E][E,G,E] [A,,A,]>[A,,A,][A,,A,] | [D,A,][D,A,][D,A,] [D,A,]3 | %6
 [A,,A,][A,,A,][A,,A,] [A,,A,]>[A,,A,][A,,A,] | [E,G,D][E,A,D][E,B,D] [E,A,C]3 | .E3 z3 | %9
 [A,E]>[E,A,E][C,A,] [A,,A,]2 [A,,A,] | [E,B,E]>[E,A,E][E,B,E] [E,CE]>[E,B,E][E,CE] | %11
 [E,DE]>[E,CE][E,G,E] [A,,A,]3 | [E,G,E]>[E,A,][E,B,] [E,A,]2 [E,G,] | %13
 [A,E]>[E,A,E][C,A,] [A,,A,]2 [A,,A,] | [D,A,]>[D,A,][D,A,] [E,CE]>[E,B,E][E,CE] | %15
[M:15/16] [E,G,D]>[E,A,D][E,B,D][A,,A,]3/2- [A,,A,]3 |] %16
V:3
 x6 | x6 | x6 | x6 | x6 | x6 | x6 | x6 | z z/ F/G F2 E | x6 | x6 | x6 | z z/ F/G F2 E | x6 | x6 | %15
[M:15/16] x15/2 |] %16
V:4
 x6 | x6 | x6 | x6 | x6 | x6 | x6 | x6 | z .A,2 z3 | x6 | x6 | x6 | x6 | x6 | x6 | %15
[M:15/16] x15/2 |] %16
V:5
 x6 | x6 | x6 | x6 | x6 | x6 | x6 | x6 | [E,G,]E,[E,B,] [E,A,]2 [E,G,] | x6 | x6 | x6 | x6 | x6 | %14
 x6 |[M:15/16] x15/2 |] %16

